static/img/kroki/9913b81b3fb4409d543c1870eafacd3a.svg

<?xml version="1.0" encoding="us-ascii" standalone="no"?><svg xmlns="http://www.w3.org/2000/svg" xmlns:xlink="http://www.w3.org/1999/xlink" contentStyleType="text/css" height="733px" preserveAspectRatio="none" style="width:377px;height:733px;" version="1.1" viewBox="0 0 377 733" width="377px" zoomAndPan="magnify"><defs/><g><!--class account--><g id="elem_account"><rect codeLine="22" fill="#3D176E" height="39.7891" id="account" rx="2.5" ry="2.5" style="stroke:#000D19;stroke-width:0.5;" width="107" x="203" y="438.76"/><ellipse cx="218" cy="458.6545" fill="#ADD1B2" rx="11" ry="11" style="stroke:#181818;stroke-width:1.0;"/><path d="M220.9688,464.2952 Q220.3906,464.592 219.75,464.7327 Q219.1094,464.8889 218.4063,464.8889 Q215.9063,464.8889 214.5781,463.2483 Q213.2656,461.592 213.2656,458.467 Q213.2656,455.342 214.5781,453.6858 Q215.9063,452.0295 218.4063,452.0295 Q219.1094,452.0295 219.75,452.1858 Q220.4063,452.342 220.9688,452.6389 L220.9688,455.3577 Q220.3438,454.7795 219.75,454.5139 Q219.1563,454.2327 218.5313,454.2327 Q217.1875,454.2327 216.5,455.3108 Q215.8125,456.3733 215.8125,458.467 Q215.8125,460.5608 216.5,461.6389 Q217.1875,462.7014 218.5313,462.7014 Q219.1563,462.7014 219.75,462.4358 Q220.3438,462.1545 220.9688,461.5764 L220.9688,464.2952 Z " fill="#000000"/><text fill="#D9B8FF" font-family="Helvetica" font-size="17" lengthAdjust="spacing" textLength="65" x="237" y="464.5398">account</text></g><!--class resource--><g id="elem_resource"><rect codeLine="24" fill="#3D176E" height="310.7578" id="resource" rx="2.5" ry="2.5" style="stroke:#000D19;stroke-width:0.5;" width="227" x="143" y="7"/><ellipse cx="211.75" cy="26.8945" fill="#ADD1B2" rx="11" ry="11" style="stroke:#181818;stroke-width:1.0;"/><path d="M214.7188,32.5352 Q214.1406,32.832 213.5,32.9727 Q212.8594,33.1289 212.1563,33.1289 Q209.6563,33.1289 208.3281,31.4883 Q207.0156,29.832 207.0156,26.707 Q207.0156,23.582 208.3281,21.9258 Q209.6563,20.2695 212.1563,20.2695 Q212.8594,20.2695 213.5,20.4258 Q214.1563,20.582 214.7188,20.8789 L214.7188,23.5977 Q214.0938,23.0195 213.5,22.7539 Q212.9063,22.4727 212.2813,22.4727 Q210.9375,22.4727 210.25,23.5508 Q209.5625,24.6133 209.5625,26.707 Q209.5625,28.8008 210.25,29.8789 Q210.9375,30.9414 212.2813,30.9414 Q212.9063,30.9414 213.5,30.6758 Q214.0938,30.3945 214.7188,29.8164 L214.7188,32.5352 Z " fill="#000000"/><text fill="#D9B8FF" font-family="Helvetica" font-size="17" lengthAdjust="spacing" textLength="71" x="237.25" y="32.7798">resource</text><line style="stroke:#000D19;stroke-width:0.5;" x1="144" x2="369" y1="46.7891" y2="46.7891"/><text fill="#D9B8FF" font-family="sans-serif" font-size="14" font-weight="bold" lengthAdjust="spacing" textLength="29" x="154" y="68.7842">age</text><text fill="#D9B8FF" font-family="sans-serif" font-size="14" lengthAdjust="spacing" textLength="66" x="183" y="68.7842">: duration</text><text fill="#D9B8FF" font-family="sans-serif" font-size="14" font-weight="bold" lengthAdjust="spacing" textLength="43" x="154" y="95.0811">atime</text><text fill="#D9B8FF" font-family="sans-serif" font-size="14" lengthAdjust="spacing" textLength="70" x="197" y="95.0811">: datetime</text><text fill="#D9B8FF" font-family="sans-serif" font-size="14" font-weight="bold" lengthAdjust="spacing" textLength="43" x="154" y="121.3779">ctime</text><text fill="#D9B8FF" font-family="sans-serif" font-size="14" lengthAdjust="spacing" textLength="70" x="197" y="121.3779">: datetime</text><text fill="#D9B8FF" font-family="sans-serif" font-size="14" font-weight="bold" lengthAdjust="spacing" textLength="14" x="154" y="147.6748">id</text><text fill="#D9B8FF" font-family="sans-serif" font-size="14" lengthAdjust="spacing" textLength="48" x="168" y="147.6748">: string</text><text fill="#D9B8FF" font-family="sans-serif" font-size="14" font-weight="bold" lengthAdjust="spacing" textLength="33" x="154" y="173.9717">kind</text><text fill="#D9B8FF" font-family="sans-serif" font-size="14" lengthAdjust="spacing" textLength="48" x="187" y="173.9717">: string</text><text fill="#D9B8FF" font-family="sans-serif" font-size="14" font-weight="bold" lengthAdjust="spacing" textLength="90" x="154" y="200.2686">last_access</text><text fill="#D9B8FF" font-family="sans-serif" font-size="14" lengthAdjust="spacing" textLength="66" x="244" y="200.2686">: duration</text><text fill="#D9B8FF" font-family="sans-serif" font-size="14" font-weight="bold" lengthAdjust="spacing" textLength="90" x="154" y="226.5654">last_update</text><text fill="#D9B8FF" font-family="sans-serif" font-size="14" lengthAdjust="spacing" textLength="66" x="244" y="226.5654">: duration</text><text fill="#D9B8FF" font-family="sans-serif" font-size="14" font-weight="bold" lengthAdjust="spacing" textLength="48" x="154" y="252.8623">mtime</text><text fill="#D9B8FF" font-family="sans-serif" font-size="14" lengthAdjust="spacing" textLength="70" x="202" y="252.8623">: datetime</text><text fill="#D9B8FF" font-family="sans-serif" font-size="14" font-weight="bold" lengthAdjust="spacing" textLength="43" x="154" y="279.1592">name</text><text fill="#D9B8FF" font-family="sans-serif" font-size="14" lengthAdjust="spacing" textLength="48" x="197" y="279.1592">: string</text><text fill="#D9B8FF" font-family="sans-serif" font-size="14" font-weight="bold" lengthAdjust="spacing" textLength="34" x="154" y="305.4561">tags</text><text fill="#D9B8FF" font-family="sans-serif" font-size="14" lengthAdjust="spacing" textLength="171" x="188" y="305.4561">: dictionary[string, string]</text></g><!--class scarf_organization--><g id="elem_scarf_organization"><rect codeLine="36" fill="#3D176E" height="126.6797" id="scarf_organization" rx="2.5" ry="2.5" style="stroke:#000D19;stroke-width:0.5;" width="194" x="25.5" y="599.55"/><ellipse cx="40.5" cy="619.4445" fill="#ADD1B2" rx="11" ry="11" style="stroke:#181818;stroke-width:1.0;"/><path d="M43.4688,625.0852 Q42.8906,625.382 42.25,625.5227 Q41.6094,625.6789 40.9063,625.6789 Q38.4063,625.6789 37.0781,624.0383 Q35.7656,622.382 35.7656,619.257 Q35.7656,616.132 37.0781,614.4758 Q38.4063,612.8195 40.9063,612.8195 Q41.6094,612.8195 42.25,612.9758 Q42.9063,613.132 43.4688,613.4289 L43.4688,616.1477 Q42.8438,615.5695 42.25,615.3039 Q41.6563,615.0227 41.0313,615.0227 Q39.6875,615.0227 39,616.1008 Q38.3125,617.1633 38.3125,619.257 Q38.3125,621.3508 39,622.4289 Q39.6875,623.4914 41.0313,623.4914 Q41.6563,623.4914 42.25,623.2258 Q42.8438,622.9445 43.4688,622.3664 L43.4688,625.0852 Z " fill="#000000"/><text fill="#D9B8FF" font-family="Helvetica" font-size="17" lengthAdjust="spacing" textLength="152" x="59.5" y="625.3298">scarf_organization</text><line style="stroke:#000D19;stroke-width:0.5;" x1="26.5" x2="218.5" y1="639.3391" y2="639.3391"/><text fill="#D9B8FF" font-family="sans-serif" font-size="14" font-weight="bold" lengthAdjust="spacing" textLength="94" x="36.5" y="661.3342">billing_email</text><text fill="#D9B8FF" font-family="sans-serif" font-size="14" lengthAdjust="spacing" textLength="48" x="130.5" y="661.3342">: string</text><text fill="#D9B8FF" font-family="sans-serif" font-size="14" font-weight="bold" lengthAdjust="spacing" textLength="89" x="36.5" y="687.6311">description</text><text fill="#D9B8FF" font-family="sans-serif" font-size="14" lengthAdjust="spacing" textLength="48" x="125.5" y="687.6311">: string</text><text fill="#D9B8FF" font-family="sans-serif" font-size="14" font-weight="bold" lengthAdjust="spacing" textLength="63" x="36.5" y="713.9279">website</text><text fill="#D9B8FF" font-family="sans-serif" font-size="14" lengthAdjust="spacing" textLength="48" x="99.5" y="713.9279">: string</text></g><!--class scarf_resource--><g id="elem_scarf_resource"><rect codeLine="41" fill="#3D176E" height="39.7891" id="scarf_resource" rx="2.5" ry="2.5" style="stroke:#000D19;stroke-width:0.5;" width="161" x="7" y="438.76"/><ellipse cx="22" cy="458.6545" fill="#ADD1B2" rx="11" ry="11" style="stroke:#181818;stroke-width:1.0;"/><path d="M24.9688,464.2952 Q24.3906,464.592 23.75,464.7327 Q23.1094,464.8889 22.4063,464.8889 Q19.9063,464.8889 18.5781,463.2483 Q17.2656,461.592 17.2656,458.467 Q17.2656,455.342 18.5781,453.6858 Q19.9063,452.0295 22.4063,452.0295 Q23.1094,452.0295 23.75,452.1858 Q24.4063,452.342 24.9688,452.6389 L24.9688,455.3577 Q24.3438,454.7795 23.75,454.5139 Q23.1563,454.2327 22.5313,454.2327 Q21.1875,454.2327 20.5,455.3108 Q19.8125,456.3733 19.8125,458.467 Q19.8125,460.5608 20.5,461.6389 Q21.1875,462.7014 22.5313,462.7014 Q23.1563,462.7014 23.75,462.4358 Q24.3438,462.1545 24.9688,461.5764 L24.9688,464.2952 Z " fill="#000000"/><text fill="#D9B8FF" font-family="Helvetica" font-size="17" lengthAdjust="spacing" textLength="119" x="41" y="464.5398">scarf_resource</text></g><!--reverse link resource to account--><g id="link_resource_account"><path codeLine="43" d="M256.5,335.84 C256.5,384.13 256.5,413.37 256.5,438.68 " fill="none" id="resource-backto-account" style="stroke:#FFAF37;stroke-width:2.0;"/><polygon fill="none" points="256.5,317.84,250.5,335.84,262.5,335.84,256.5,317.84" style="stroke:#FFAF37;stroke-width:2.0;"/></g><!--reverse link account to scarf_organization--><g id="link_account_scarf_organization"><path codeLine="44" d="M233.707,494.0546 C215.497,521.5346 191.29,558.07 163.87,599.45 " fill="none" id="account-backto-scarf_organization" style="stroke:#FFAF37;stroke-width:2.0;"/><polygon fill="none" points="243.65,479.05,228.7055,490.7402,238.7085,497.3689,243.65,479.05" style="stroke:#FFAF37;stroke-width:2.0;"/></g><!--reverse link scarf_resource to scarf_organization--><g id="link_scarf_resource_scarf_organization"><path codeLine="45" d="M93.9259,496.787 C98.6759,524.267 104.53,558.07 111.69,599.45 " fill="none" id="scarf_resource-backto-scarf_organization" style="stroke:#FFAF37;stroke-width:2.0;"/><polygon fill="none" points="90.86,479.05,88.0136,497.8089,99.8382,495.765,90.86,479.05" style="stroke:#FFAF37;stroke-width:2.0;"/></g><!--SRC=[XP91R-8m48Nl-HMMUaEB1Assb6elNQIglQ1LsrjLeOaz2HQ97OqdYs2t_xqs0UGaK6xnUr_clN6or0e5bXLlH8bbYkGIjzAc0e9IF13PzSmMbiHLba5sC-cQZzRmHM0E9OedBFuYQmbTucsfvSgWS-8widw3NELaQwEQyKnWdBVGS4JD2d3kWPbqMZD6PTGqlSkoBjaTUdMZnfDRx66M5D8U6Or6QZpj8XUZljtxIBpgBOfnV6bpozYhsOlOKT-s34HKihVemJ_RyGyefKqkVaRQIzE9359BVrs2ikj0Pr2uECOn4bhUL3ZhRONJEvLDJiBFvs0PRaw0bDvYyI_vt2k4pjOaqKk30UGu6DmBLHEmjYOehCj60yRmx3LvGjCg2Cx_JoRtHz-iBVWiNlXq_xTs4dPENOLP7QSyaMEWaOw36V9cefRXDQ3DU-Fzs3CVnrMT1CeMbd8mUhiBsIsTwgBmt09Bq4Lhja8dILU1REbhJ9tck4Sx8hhJp-Hu-FL_E1mUla1o-1ADsg-MT4QTuxu0]--></g></svg>

<svg xmlns="http://www.w3.org/2000/svg" width="377" height="733" viewBox="0 0 377 733"><rect width="107" height="39.789" x="203" y="438.76" fill="#3D176E" rx="2.5" ry="2.5" style="stroke:#000d19;stroke-width:.5"/><circle cx="218" cy="458.654" r="11" fill="#ADD1B2" style="stroke:#181818;stroke-width:1"/><path d="M220.969 464.295q-.578.297-1.219.438-.64.156-1.344.156-2.5 0-3.828-1.64-1.312-1.657-1.312-4.782t1.312-4.781q1.328-1.656 3.828-1.656.703 0 1.344.156.656.156 1.219.453v2.719q-.625-.579-1.219-.844-.594-.281-1.219-.281-1.344 0-2.031 1.078-.687 1.062-.687 3.156t.687 3.172q.688 1.062 2.031 1.062.625 0 1.219-.265.594-.281 1.219-.86z"/><text x="237" y="464.54" fill="#D9B8FF" font-family="Helvetica" font-size="17" textLength="65">account</text><rect width="227" height="310.758" x="143" y="7" fill="#3D176E" rx="2.5" ry="2.5" style="stroke:#000d19;stroke-width:.5"/><circle cx="211.75" cy="26.895" r="11" fill="#ADD1B2" style="stroke:#181818;stroke-width:1"/><path d="M214.719 32.535q-.578.297-1.219.438-.64.156-1.344.156-2.5 0-3.828-1.64-1.312-1.657-1.312-4.782t1.312-4.781q1.328-1.656 3.828-1.656.703 0 1.344.156.656.156 1.219.453v2.719q-.625-.578-1.219-.844-.594-.281-1.219-.281-1.344 0-2.031 1.078-.687 1.062-.687 3.156t.687 3.172q.688 1.062 2.031 1.062.625 0 1.219-.265.594-.281 1.219-.86z"/><text x="237.25" y="32.78" fill="#D9B8FF" font-family="Helvetica" font-size="17" textLength="71">resource</text><path d="M144 46.789h225" style="stroke:#000d19;stroke-width:.5"/><text x="154" y="68.784" fill="#D9B8FF" font-family="sans-serif" font-size="14" font-weight="bold" textLength="29">age</text><text x="183" y="68.784" fill="#D9B8FF" font-family="sans-serif" font-size="14" textLength="66">: duration</text><text x="154" y="95.081" fill="#D9B8FF" font-family="sans-serif" font-size="14" font-weight="bold" textLength="43">atime</text><text x="197" y="95.081" fill="#D9B8FF" font-family="sans-serif" font-size="14" textLength="70">: datetime</text><text x="154" y="121.378" fill="#D9B8FF" font-family="sans-serif" font-size="14" font-weight="bold" textLength="43">ctime</text><text x="197" y="121.378" fill="#D9B8FF" font-family="sans-serif" font-size="14" textLength="70">: datetime</text><text x="154" y="147.675" fill="#D9B8FF" font-family="sans-serif" font-size="14" font-weight="bold" textLength="14">id</text><text x="168" y="147.675" fill="#D9B8FF" font-family="sans-serif" font-size="14" textLength="48">: string</text><text x="154" y="173.972" fill="#D9B8FF" font-family="sans-serif" font-size="14" font-weight="bold" textLength="33">kind</text><text x="187" y="173.972" fill="#D9B8FF" font-family="sans-serif" font-size="14" textLength="48">: string</text><text x="154" y="200.269" fill="#D9B8FF" font-family="sans-serif" font-size="14" font-weight="bold" textLength="90">last_access</text><text x="244" y="200.269" fill="#D9B8FF" font-family="sans-serif" font-size="14" textLength="66">: duration</text><text x="154" y="226.565" fill="#D9B8FF" font-family="sans-serif" font-size="14" font-weight="bold" textLength="90">last_update</text><text x="244" y="226.565" fill="#D9B8FF" font-family="sans-serif" font-size="14" textLength="66">: duration</text><text x="154" y="252.862" fill="#D9B8FF" font-family="sans-serif" font-size="14" font-weight="bold" textLength="48">mtime</text><text x="202" y="252.862" fill="#D9B8FF" font-family="sans-serif" font-size="14" textLength="70">: datetime</text><text x="154" y="279.159" fill="#D9B8FF" font-family="sans-serif" font-size="14" font-weight="bold" textLength="43">name</text><text x="197" y="279.159" fill="#D9B8FF" font-family="sans-serif" font-size="14" textLength="48">: string</text><text x="154" y="305.456" fill="#D9B8FF" font-family="sans-serif" font-size="14" font-weight="bold" textLength="34">tags</text><text x="188" y="305.456" fill="#D9B8FF" font-family="sans-serif" font-size="14" textLength="171">: dictionary[string, string]</text><rect width="194" height="126.68" x="25.5" y="599.55" fill="#3D176E" rx="2.5" ry="2.5" style="stroke:#000d19;stroke-width:.5"/><circle cx="40.5" cy="619.444" r="11" fill="#ADD1B2" style="stroke:#181818;stroke-width:1"/><path d="M43.469 625.085q-.578.297-1.219.438-.64.156-1.344.156-2.5 0-3.828-1.64-1.312-1.657-1.312-4.782t1.312-4.781q1.328-1.657 3.828-1.657.703 0 1.344.157.656.156 1.219.453v2.719q-.625-.579-1.219-.844-.594-.281-1.219-.281-1.343 0-2.031 1.078-.687 1.062-.687 3.156t.687 3.172q.688 1.062 2.031 1.062.625 0 1.219-.265.594-.282 1.219-.86z"/><text x="59.5" y="625.33" fill="#D9B8FF" font-family="Helvetica" font-size="17" textLength="152">scarf_organization</text><path d="M26.5 639.339h192" style="stroke:#000d19;stroke-width:.5"/><text x="36.5" y="661.334" fill="#D9B8FF" font-family="sans-serif" font-size="14" font-weight="bold" textLength="94">billing_email</text><text x="130.5" y="661.334" fill="#D9B8FF" font-family="sans-serif" font-size="14" textLength="48">: string</text><text x="36.5" y="687.631" fill="#D9B8FF" font-family="sans-serif" font-size="14" font-weight="bold" textLength="89">description</text><text x="125.5" y="687.631" fill="#D9B8FF" font-family="sans-serif" font-size="14" textLength="48">: string</text><text x="36.5" y="713.928" fill="#D9B8FF" font-family="sans-serif" font-size="14" font-weight="bold" textLength="63">website</text><text x="99.5" y="713.928" fill="#D9B8FF" font-family="sans-serif" font-size="14" textLength="48">: string</text><rect width="161" height="39.789" x="7" y="438.76" fill="#3D176E" rx="2.5" ry="2.5" style="stroke:#000d19;stroke-width:.5"/><circle cx="22" cy="458.654" r="11" fill="#ADD1B2" style="stroke:#181818;stroke-width:1"/><path d="M24.969 464.295q-.578.297-1.219.438-.64.156-1.344.156-2.5 0-3.828-1.64-1.312-1.657-1.312-4.782t1.312-4.781q1.328-1.656 3.828-1.656.703 0 1.344.156.656.156 1.219.453v2.719q-.625-.579-1.219-.844-.594-.281-1.219-.281-1.343 0-2.031 1.078-.687 1.062-.687 3.156t.687 3.172q.688 1.062 2.031 1.062.625 0 1.219-.265.594-.281 1.219-.86z"/><text x="41" y="464.54" fill="#D9B8FF" font-family="Helvetica" font-size="17" textLength="119">scarf_resource</text><path fill="none" d="M256.5 335.84v102.84m0-120.84-6 18h12zm-22.793 176.215L163.87 599.45m79.78-120.4-14.945 11.69 10.003 6.629z" style="stroke:#ffaf37;stroke-width:2"/><g fill="none"><path d="M93.926 496.787c4.75 27.48 10.604 61.283 17.764 102.663" style="stroke:#ffaf37;stroke-width:2"/><path d="m90.86 479.05-2.846 18.759 11.824-2.044z" style="stroke:#ffaf37;stroke-width:2"/></g></svg>
